lib/brands/logos/american-cancer-society.svg

<svg xmlns="http://www.w3.org/2000/svg" fill="none" aria-hidden="true" viewBox="0 0 134 88"><g id="American Cancer Society"><g id="Group"><path id="Vector" fill="#0038A8" d="M28.9215 5.68558H130.65L105.264 82.2146H28.9215V5.68558Z"/><path id="Vector_2" fill="#C41E3A" d="M28.9217 5.68558H3.34998V82.2146H28.9217V5.68558Z"/><g id="Vector_3"><path fill="white" d="M19.2399 56.767C19.8606 56.2704 20.7295 56.3325 21.3502 56.829C21.8467 57.4497 21.7846 58.3807 21.164 58.9393C20.4812 59.56 15.4538 63.5944 14.4607 64.3392C13.84 64.6495 13.0952 64.5874 12.5366 64.0909C12.1021 63.4702 12.1642 62.6634 12.6607 62.1048C13.1573 61.5461 18.6813 57.2014 19.2399 56.767Z"/><path fill="white" d="M18.3089 62.353C18.9295 61.9185 19.7364 61.9185 20.295 62.4151C20.8536 63.0358 20.7295 63.9668 20.1709 64.5254C19.4261 65.2081 15.7641 68.0011 15.2676 68.3736C14.6469 68.6839 13.9021 68.6218 13.3435 68.1253C12.8469 67.5667 12.909 66.6357 13.4676 66.1391C14.0883 65.5185 17.6882 62.7254 18.3089 62.353Z"/><path fill="white" d="M17.9365 67.3184V69.4287C18.8054 70.1114 18.9916 71.3528 18.3089 72.2838C18.2468 72.3459 18.1847 72.47 18.1227 72.5321C17.1917 73.2148 15.8882 73.0286 15.2055 72.1597C15.0814 72.0355 15.0193 71.8493 14.9572 71.6631V69.5528C15.4538 69.1804 17.8744 67.3184 17.9365 67.3184Z"/><path fill="white" d="M16.4469 13.1957L17.9365 16.8577V52.1119L16.4469 53.2912L14.9572 52.1119V16.8577L16.4469 13.1957Z"/><path fill="white" d="M22.2191 46.1534H18.9916L19.9847 47.7672L18.8675 49.3809C20.233 50.0637 21.5984 48.7603 21.9088 49.1327C22.157 49.3189 22.2191 49.6292 22.095 49.8775L11.6677 58.0704C11.1711 58.691 11.3573 59.6221 11.978 60.0565C12.4745 60.4289 13.1573 60.4289 13.6538 60.0565L24.3294 51.6774C25.1363 50.6844 25.3845 49.3809 24.888 48.2017C24.5156 47.0224 23.4605 46.2155 22.2191 46.1534Z"/><path fill="white" d="M10.6125 46.1534H13.9021L12.909 47.7672L14.0883 49.3809C12.7228 50.0637 11.2332 48.7603 10.8608 49.1327C10.6125 49.3189 10.6125 49.6292 10.7367 49.8154L15.7641 53.7877L13.4676 55.5877L8.50223 51.6774C7.69536 50.7464 7.44709 49.3809 7.94362 48.2017C8.31603 47.0845 9.37117 46.2155 10.6125 46.1534Z"/></g><g id="Vector_4"><path fill="white" d="M48.2862 27.5954H50.8931V29.085C51.4517 27.9678 52.6309 27.285 53.8723 27.4092C54.9895 27.3471 56.0447 27.9678 56.4171 28.9609C57.0377 27.9678 58.1549 27.3471 59.3342 27.4092C61.6928 27.4092 62.2514 28.7746 62.2514 31.0091V35.8503H59.4584V31.4435C59.4584 30.5125 59.148 29.8298 58.3411 29.8298C57.3481 29.7677 56.7274 30.5746 56.7274 32.3746V35.8503H53.8723V31.4435C53.8723 30.5125 53.562 29.8298 52.7551 29.8298C51.762 29.8298 51.1413 30.6367 51.1413 32.4366V35.9124H48.2862V27.5954Z"/><path fill="white" d="M66.2237 32.5608C66.3478 33.678 67.2168 34.1745 68.6443 34.1745C69.5133 34.1745 70.3822 33.9883 71.1891 33.5538V35.4779C70.196 35.8503 69.2029 36.0365 68.1478 35.9745C65.4168 35.9745 63.3686 34.3607 63.3686 31.6297C63.3686 28.8988 65.2306 27.3471 67.7754 27.3471C70.8167 27.3471 71.9339 29.5195 71.9339 31.9401V32.4366L66.2237 32.5608ZM69.3271 30.947C69.3271 30.016 68.8926 29.2091 67.7133 29.2091C66.6582 29.2091 66.2237 29.9539 66.0996 30.947H69.3271Z"/><path fill="white" d="M78.9475 29.8919C78.6372 29.8298 78.3268 29.7677 77.9544 29.7677C76.651 29.7677 75.9062 30.7608 75.9062 32.3746V35.8503H73.0511V27.5954H75.6579V29.085H75.72C76.0924 28.0298 77.0855 27.3471 78.1406 27.4092C78.451 27.4092 78.7613 27.4712 79.1337 27.4712L78.9475 29.8919Z"/><path fill="white" d="M80.0647 27.5954H82.9198V35.7883H80.0647V27.5954ZM82.8578 26.2299H80.0026V24.1196H82.8578V26.2299Z"/><path fill="white" d="M90.492 29.9539C89.9955 29.6436 89.3748 29.4574 88.7541 29.5195C87.5749 29.4574 86.5818 30.3884 86.5818 31.5677C86.5818 31.6297 86.5818 31.7539 86.5818 31.816C86.5818 33.0573 87.6369 34.0504 88.8783 33.9883H88.9403C89.561 33.9883 90.1817 33.8642 90.6782 33.6159L90.7403 35.7262C89.9955 35.9745 89.1886 36.0986 88.4438 36.0986C85.7128 36.0986 83.6646 34.4848 83.6646 31.816C83.6646 29.1471 85.7128 27.5333 88.4438 27.5333C89.2507 27.5333 89.9955 27.6574 90.6782 27.9678L90.492 29.9539Z"/><path fill="white" d="M94.154 33.1814C94.154 32.3746 94.8988 32.0642 95.8919 32.0642C96.3264 32.0642 96.7608 32.1263 97.0712 32.1263C97.1332 33.1194 96.3264 33.9883 95.3333 34.0504C94.6505 34.1124 94.154 33.8021 94.154 33.1814ZM99.9263 35.7883C99.8021 35.1676 99.7401 34.4848 99.7401 33.8642V30.8229C99.7401 28.3402 97.9401 27.4092 95.8298 27.4092C94.7126 27.4092 93.5954 27.5954 92.5403 27.9678L92.6023 29.8919C93.4092 29.4574 94.3402 29.2712 95.2092 29.2712C96.2643 29.2712 97.0712 29.5815 97.0712 30.6987C96.6367 30.6367 96.2022 30.5746 95.7678 30.5746C94.2781 30.5746 91.4851 30.8849 91.4851 33.3676C91.4851 35.1676 92.9127 35.9745 94.5885 35.9745C95.6436 36.0365 96.6988 35.4159 97.1953 34.4848C97.1953 34.9193 97.2574 35.3538 97.2574 35.7883H99.9263Z"/><path fill="white" d="M101.292 27.5954H103.899V29.085H103.961C104.519 27.9678 105.699 27.285 106.94 27.4092C109.174 27.4092 110.105 28.9609 110.105 30.6987V35.8503H107.25V31.878C107.25 30.3263 106.692 29.8298 105.947 29.8298C104.768 29.8298 104.147 30.6367 104.147 32.4366V35.9124H101.292V27.5954Z"/><path fill="white" d="M45.1829 49.1327C44.1277 49.4431 43.0105 49.5672 41.8933 49.5672C38.9761 49.5672 35.5624 48.0776 35.5624 43.9191C35.5624 40.0709 38.2313 38.1468 41.8933 38.1468C43.0105 38.1468 44.1277 38.3951 45.1829 38.7054L44.9346 41.1261C44.0657 40.6295 43.0726 40.3812 42.0795 40.3812C40.2175 40.3192 38.6658 41.8088 38.6658 43.6708C38.6658 43.795 38.6658 43.857 38.6658 43.9812C38.6658 46.1535 40.2175 47.4569 42.3278 47.4569C43.2588 47.4569 44.1898 47.2707 45.0587 46.8983L45.1829 49.1327Z"/><path fill="white" d="M48.5966 46.7742C48.5966 45.9673 49.3414 45.719 50.3345 45.719C50.7689 45.719 51.2034 45.719 51.5137 45.7811C51.5758 46.7742 50.7689 47.6431 49.7758 47.7052C49.2172 47.7673 48.7207 47.3949 48.5966 46.8983C48.5966 46.8363 48.5966 46.7742 48.5966 46.7742ZM54.3068 49.381C54.1826 48.7603 54.1206 48.0776 54.1206 47.4569V44.4156C54.1206 41.8709 52.3206 41.0019 50.2103 41.0019C49.0931 41.0019 47.9759 41.1881 46.9207 41.5605L46.9828 43.4846C47.7897 43.0501 48.7207 42.8639 49.5896 42.8639C50.5827 42.8639 51.4517 43.1743 51.4517 44.2915C51.0793 44.1674 50.5827 44.1674 50.1483 44.1674C48.6586 44.1674 45.8656 44.4777 45.8656 46.9604C45.8656 48.7603 47.2932 49.5672 48.969 49.5672C50.0241 49.6293 51.0793 49.0086 51.5758 48.0776C51.5758 48.5121 51.6379 48.9465 51.6379 49.381H54.3068Z"/><path fill="white" d="M55.6102 41.1261H58.217V42.6157H58.2791C58.8377 41.4985 60.017 40.8157 61.2583 40.8778C63.4927 40.8778 64.4237 42.4295 64.4237 44.1674V49.319H61.5686V45.4087C61.5686 43.857 61.01 43.3605 60.2652 43.3605C59.0859 43.3605 58.4653 44.1674 58.4653 45.9673V49.4431H55.6102V41.1261Z"/><path fill="white" d="M72.3063 43.4846C71.8098 43.1743 71.1891 42.9881 70.5684 43.0501C69.3891 42.9881 68.3961 43.9191 68.3961 45.0984C68.3961 45.1604 68.3961 45.2225 68.3961 45.2846C68.3961 46.5259 69.4512 47.519 70.6925 47.4569H70.7546C71.3753 47.4569 71.996 47.3328 72.5546 47.0845L72.6166 49.1948C71.8718 49.4431 71.065 49.5672 70.3201 49.5672C67.5892 49.5672 65.541 47.9535 65.541 45.2846C65.541 42.6157 67.6512 41.0019 70.3201 41.0019C71.127 41.0019 71.8718 41.1261 72.5546 41.4364L72.3063 43.4846Z"/><path fill="white" d="M76.2786 44.4777C76.3407 43.5467 76.8372 42.7398 77.8924 42.7398C79.0096 42.7398 79.5061 43.4846 79.5061 44.4777H76.2786ZM81.9888 46.0914V45.5949C81.9888 43.1122 80.8716 41.0019 77.8303 41.0019C75.2855 41.0019 73.4235 42.6157 73.4235 45.2846C73.4235 47.9535 75.4717 49.6293 78.2027 49.6293C79.2578 49.6293 80.2509 49.4431 81.244 49.1327V47.1466C80.4992 47.5811 79.6302 47.7673 78.7613 47.7673C77.3958 47.7673 76.5269 47.3328 76.3407 46.2156L81.9888 46.0914Z"/><path fill="white" d="M89.0024 43.4225C88.6921 43.3605 88.3817 43.2984 88.0093 43.2984C86.7059 43.2984 85.9611 44.2915 85.9611 45.9052V49.381H83.106V41.1261H85.7128V42.6157H85.7749C86.1473 41.5605 87.1404 40.8778 88.1955 40.8778C88.5059 40.8778 88.8162 40.9399 89.1265 41.0019L89.0024 43.4225Z"/><path fill="white" d="M35.9969 60.1807C36.9279 60.6773 37.9831 60.9255 39.0382 60.9255C39.9692 60.9255 40.8381 60.7393 40.8381 59.8704C40.8381 57.8222 35.6245 59.1256 35.6245 55.0912C35.6245 52.4223 38.2313 51.7396 40.4037 51.7396C41.3968 51.7396 42.3278 51.8637 43.2588 52.174L43.0726 54.4085C42.3278 54.0981 41.4588 53.9119 40.6519 53.9119C39.9071 53.9119 38.6658 53.974 38.6658 54.905C38.6658 56.705 43.8795 55.4636 43.8795 59.498C43.8795 62.3531 41.4588 63.16 39.0382 63.16C37.921 63.16 36.8038 62.9738 35.7486 62.6634L35.9969 60.1807Z"/><path fill="white" d="M49.2793 61.1117C47.9759 61.1117 47.4173 59.9945 47.4173 58.8153C47.4173 57.636 47.9759 56.5188 49.2793 56.5188C50.5827 56.5188 51.1413 57.636 51.1413 58.8153C51.1413 59.9945 50.5827 61.1117 49.2793 61.1117ZM49.2793 63.0979C52.0103 63.0979 54.0585 61.4842 54.0585 58.8153C54.0585 56.1464 52.0103 54.5326 49.2793 54.5326C46.5483 54.5326 44.5001 56.0843 44.5001 58.8153C44.5001 61.5462 46.5483 63.0979 49.2793 63.0979Z"/><path fill="white" d="M61.5686 57.0153C61.0721 56.705 60.4514 56.5808 59.8308 56.5808C58.6515 56.5188 57.6584 57.4498 57.6584 58.6291C57.6584 58.6911 57.6584 58.7532 57.6584 58.8773C57.7205 60.1187 58.7135 61.0497 59.9549 61.0497H60.017C60.6376 61.0497 61.2583 60.9255 61.8169 60.6773L61.879 62.7876C61.1342 63.0358 60.3273 63.16 59.5825 63.16C56.8515 63.16 54.8033 61.5462 54.8033 58.8773C54.8033 56.2084 56.8515 54.5947 59.5825 54.5947C60.3894 54.5947 61.1342 54.7188 61.8169 55.0291L61.5686 57.0153Z"/><path fill="white" d="M63.1203 54.6567H65.9754V62.9117H63.1203V54.6567ZM65.9754 53.3533H63.1203V51.243H65.9754V53.3533Z"/><path fill="white" d="M70.0719 58.0084C70.1339 57.0774 70.6305 56.2705 71.6856 56.2705C72.8028 56.2705 73.2994 57.0153 73.2994 58.0084H70.0719ZM75.7821 59.6221V59.1256C75.7821 56.705 74.6649 54.5326 71.6236 54.5326C69.0788 54.5326 67.2168 56.0843 67.2168 58.8153C67.2168 61.5462 69.265 63.16 71.996 63.16C73.0511 63.16 74.0442 62.9738 75.0373 62.6634V60.6773C74.2925 61.1117 73.4235 61.2979 72.5546 61.2979C71.1891 61.2979 70.3201 60.8635 70.1339 59.6842L75.7821 59.6221Z"/><path fill="white" d="M76.0303 54.6567H77.7062V52.7947L80.4992 51.9258V54.6567H82.4853V56.6429H80.4992V59.6842C80.4992 60.6773 80.7475 61.1738 81.6785 61.1738C81.9888 61.1738 82.2371 61.1117 82.5474 61.0497L82.6715 62.9117C82.1129 63.0358 81.4923 63.0358 80.8716 63.0979C78.3268 63.0979 77.7062 61.9807 77.7062 59.9945V56.6429H76.0924L76.0303 54.6567Z"/><path fill="white" d="M84.037 64.091C84.4094 64.2151 84.7818 64.2772 85.1542 64.2772C85.837 64.2772 86.4577 63.8427 86.5818 63.16L83.2301 54.7188H86.2715L88.0714 60.1187L89.7472 54.7188H92.6023L89.6231 62.3531C88.8162 64.4013 88.1955 66.4495 85.5887 66.4495C84.968 66.4495 84.4094 66.3875 83.7888 66.2633L84.037 64.091Z"/><path fill="white" d="M97.3815 55.836V55.774C97.3815 55.2153 97.0091 55.0291 96.3884 55.0291H95.4574V57.4498H95.954V56.4567H96.2022L96.7608 57.4498H97.3194L96.6988 56.3946C97.0712 56.4567 97.3194 56.2084 97.3815 55.836ZM96.3884 56.0843H95.954V55.4636H96.3264C96.5126 55.4636 96.8229 55.4636 96.8229 55.7119C96.8229 55.9602 96.6367 56.0843 96.3884 56.0843Z"/><path fill="white" d="M96.3264 53.7257C94.8367 53.7257 93.6575 54.7809 93.6575 56.2705C93.6575 57.7601 94.8367 58.9394 96.3264 58.9394C97.816 58.9394 99.0573 57.7601 99.0573 56.2705C98.9953 54.7809 97.816 53.7257 96.3264 53.7257ZM96.3264 58.5049C95.1471 58.5049 94.154 57.5118 94.154 56.3326C94.154 55.1533 95.1471 54.2843 96.3264 54.2843C97.5056 54.2843 98.4987 55.1533 98.4987 56.3326C98.4987 57.5118 97.5056 58.5049 96.3264 58.5049Z"/><path fill="white" d="M42.7002 31.3815H39.9071L41.3347 27.0368L42.7002 31.3815ZM35.3762 35.8503H38.3555L39.2244 33.4918H43.3829L44.2519 35.8503H47.4173L43.1346 24.8023H39.5347L35.3762 35.8503Z"/></g></g></g></svg>

<svg xmlns="http://www.w3.org/2000/svg" fill="none" aria-hidden="true" viewBox="0 0 134 88"><path fill="#0038A8" d="M28.922 5.686H130.65l-25.386 76.529H28.922V5.685Z"/><path fill="#C41E3A" d="M28.922 5.686H3.35v76.529h25.572V5.685Z"/><path fill="#fff" d="M19.24 56.767c.62-.497 1.49-.434 2.11.062.497.62.435 1.552-.186 2.11-.683.621-5.71 4.655-6.703 5.4a1.705 1.705 0 0 1-1.924-.248 1.59 1.59 0 0 1 .124-1.986c.496-.559 6.02-4.904 6.579-5.338Zm-.931 5.586c.62-.434 1.427-.434 1.986.062.559.62.434 1.552-.124 2.11-.745.683-4.407 3.476-4.903 3.849a1.705 1.705 0 0 1-1.925-.249c-.496-.558-.434-1.49.125-1.986.62-.62 4.22-3.414 4.84-3.786Zm-.373 4.965v2.11a2.054 2.054 0 0 1 .373 2.856c-.062.062-.124.186-.186.248-.931.683-2.235.497-2.918-.372-.124-.124-.186-.31-.248-.497v-2.11c.497-.373 2.917-2.235 2.98-2.235Zm-1.489-54.122 1.49 3.662v35.254l-1.49 1.18-1.49-1.18V16.858l1.49-3.662Z"/><path fill="#fff" d="M22.22 46.153h-3.228l.993 1.614-1.117 1.614c1.365.683 2.73-.62 3.04-.248a.59.59 0 0 1 .187.744L11.668 58.07c-.497.621-.31 1.552.31 1.986.497.373 1.18.373 1.676 0l10.675-8.379c.807-.993 1.055-2.296.559-3.475a2.931 2.931 0 0 0-2.669-2.049Z"/><path fill="#fff" d="M10.613 46.153h3.29l-.994 1.614 1.18 1.614c-1.366.683-2.856-.62-3.228-.248a.505.505 0 0 0-.124.682l5.027 3.973-2.296 1.8-4.966-3.91a3.363 3.363 0 0 1-.558-3.476c.372-1.117 1.427-1.986 2.669-2.049Zm37.673-18.558h2.607v1.49c.559-1.117 1.738-1.8 2.98-1.676 1.117-.062 2.172.559 2.544 1.552.62-.993 1.738-1.614 2.917-1.552 2.359 0 2.917 1.366 2.917 3.6v4.841h-2.793v-4.407c0-.93-.31-1.613-1.117-1.613-.993-.062-1.614.745-1.614 2.545v3.475h-2.855v-4.407c0-.93-.31-1.613-1.117-1.613-.993 0-1.614.807-1.614 2.607v3.475h-2.855v-8.317Zm17.938 4.965c.124 1.118.993 1.614 2.42 1.614a5.32 5.32 0 0 0 2.545-.62v1.924c-.993.372-1.986.558-3.041.496-2.731 0-4.78-1.613-4.78-4.344 0-2.731 1.863-4.283 4.407-4.283 3.042 0 4.159 2.172 4.159 4.593v.497l-5.71.124Zm3.103-1.613c0-.931-.434-1.738-1.614-1.738-1.055 0-1.49.745-1.613 1.738h3.227Zm9.621-1.055c-.31-.062-.621-.124-.994-.124-1.303 0-2.048.993-2.048 2.607v3.475h-2.855v-8.255h2.607v1.49h.062c.372-1.055 1.365-1.738 2.42-1.676.311 0 .621.062.994.062l-.186 2.42Zm1.117-2.297h2.855v8.193h-2.855v-8.193Zm2.793-1.365h-2.855v-2.11h2.855v2.11Zm7.634 3.724c-.496-.31-1.117-.497-1.738-.434a2.056 2.056 0 0 0-2.172 2.048v.248a2.188 2.188 0 0 0 2.296 2.172h.062c.621 0 1.242-.124 1.738-.372l.062 2.11a7.406 7.406 0 0 1-2.296.373c-2.731 0-4.78-1.614-4.78-4.283 0-2.669 2.049-4.283 4.78-4.283.807 0 1.552.124 2.234.435l-.186 1.986Zm3.662 3.227c0-.806.745-1.117 1.738-1.117.434 0 .869.062 1.18.062.061.993-.746 1.862-1.739 1.924-.683.062-1.179-.248-1.179-.869Zm5.772 2.607a10.1 10.1 0 0 1-.186-1.924v-3.041c0-2.483-1.8-3.414-3.91-3.414a9.9 9.9 0 0 0-3.29.559l.062 1.924c.807-.435 1.738-.62 2.607-.62 1.055 0 1.862.31 1.862 1.427-.434-.062-.869-.124-1.303-.124-1.49 0-4.283.31-4.283 2.793 0 1.8 1.428 2.606 3.103 2.606 1.056.063 2.11-.558 2.607-1.49 0 .435.062.87.062 1.304h2.67Zm1.366-8.193h2.607v1.49h.062c.558-1.117 1.738-1.8 2.979-1.676 2.234 0 3.165 1.552 3.165 3.29v5.151h-2.855v-3.972c0-1.552-.558-2.048-1.303-2.048-1.179 0-1.8.807-1.8 2.607v3.475h-2.855v-8.317ZM45.183 49.133c-1.055.31-2.172.434-3.29.434-2.917 0-6.33-1.49-6.33-5.648 0-3.848 2.668-5.772 6.33-5.772 1.117 0 2.235.248 3.29.558l-.248 2.421a5.766 5.766 0 0 0-2.855-.745 3.3 3.3 0 0 0-3.414 3.29v.31c0 2.172 1.552 3.476 3.662 3.476.93 0 1.862-.186 2.73-.559l.125 2.235Zm3.414-2.359c0-.807.744-1.055 1.737-1.055.435 0 .87 0 1.18.062.062.993-.745 1.862-1.738 1.924a1.095 1.095 0 0 1-1.18-.807v-.124Zm5.71 2.607a10.099 10.099 0 0 1-.186-1.924v-3.041c0-2.545-1.8-3.414-3.91-3.414a9.901 9.901 0 0 0-3.29.558l.062 1.925c.807-.435 1.738-.621 2.607-.621.993 0 1.862.31 1.862 1.428-.373-.125-.87-.125-1.304-.125-1.49 0-4.282.31-4.282 2.793 0 1.8 1.427 2.607 3.103 2.607 1.055.062 2.11-.558 2.607-1.49 0 .435.062.87.062 1.304h2.669Zm1.303-8.255h2.607v1.49h.062a3.165 3.165 0 0 1 2.98-1.738c2.234 0 3.165 1.551 3.165 3.29v5.151h-2.855v-3.91c0-1.552-.559-2.048-1.304-2.048-1.18 0-1.8.806-1.8 2.606v3.476H55.61v-8.317Zm16.696 2.359c-.496-.31-1.117-.497-1.738-.435a2.057 2.057 0 0 0-2.172 2.048v.187a2.188 2.188 0 0 0 2.296 2.172h.063c.62 0 1.241-.124 1.8-.373l.062 2.11a7.405 7.405 0 0 1-2.297.373c-2.73 0-4.779-1.614-4.779-4.282 0-2.67 2.11-4.283 4.78-4.283.806 0 1.55.124 2.234.434l-.249 2.049Zm3.973.993c.062-.931.558-1.738 1.613-1.738 1.118 0 1.614.745 1.614 1.738H76.28Zm5.71 1.613v-.496c0-2.483-1.117-4.593-4.159-4.593-2.544 0-4.406 1.614-4.406 4.283 0 2.669 2.048 4.344 4.779 4.344 1.055 0 2.048-.186 3.041-.496v-1.986c-.745.434-1.614.62-2.483.62-1.365 0-2.234-.434-2.42-1.551l5.648-.125Zm7.013-2.669c-.31-.061-.62-.124-.993-.124-1.303 0-2.048.993-2.048 2.607v3.476h-2.855v-8.255h2.607v1.49h.062a2.593 2.593 0 0 1 2.42-1.738c.31 0 .621.062.931.124l-.124 2.42ZM35.997 60.18a6.48 6.48 0 0 0 3.041.745c.931 0 1.8-.186 1.8-1.055 0-2.048-5.214-.744-5.214-4.779 0-2.669 2.607-3.351 4.78-3.351.993 0 1.924.124 2.855.434l-.186 2.234a6.49 6.49 0 0 0-2.421-.496c-.745 0-1.986.062-1.986.993 0 1.8 5.214.559 5.214 4.593 0 2.855-2.421 3.662-4.842 3.662-1.117 0-2.234-.186-3.29-.497l.249-2.482Zm13.283.932c-1.304 0-1.863-1.117-1.863-2.297 0-1.179.559-2.296 1.862-2.296 1.304 0 1.862 1.117 1.862 2.296 0 1.18-.558 2.297-1.862 2.297Zm0 1.986c2.73 0 4.779-1.614 4.779-4.283 0-2.669-2.049-4.282-4.78-4.282-2.73 0-4.779 1.551-4.779 4.282s2.048 4.283 4.78 4.283Zm12.289-6.083c-.497-.31-1.118-.434-1.738-.434a2.057 2.057 0 0 0-2.173 2.048v.248c.063 1.242 1.056 2.173 2.297 2.173h.062c.62 0 1.241-.124 1.8-.373l.062 2.11a7.409 7.409 0 0 1-2.296.373c-2.731 0-4.78-1.614-4.78-4.283 0-2.669 2.049-4.282 4.78-4.282.806 0 1.551.124 2.234.434l-.248 1.986Zm1.551-2.358h2.855v8.255H63.12v-8.255Zm2.855-1.304H63.12v-2.11h2.855v2.11Zm4.097 4.655c.062-.93.558-1.738 1.614-1.738 1.117 0 1.613.745 1.613 1.738h-3.227Zm5.71 1.614v-.496c0-2.421-1.117-4.593-4.158-4.593-2.545 0-4.407 1.551-4.407 4.282s2.048 4.345 4.779 4.345c1.055 0 2.048-.186 3.041-.497v-1.986c-.745.435-1.614.62-2.482.62-1.366 0-2.235-.433-2.421-1.613l5.648-.062Zm.248-4.965h1.676v-1.862l2.793-.87v2.732h1.986v1.986H80.5v3.041c0 .993.249 1.49 1.18 1.49.31 0 .558-.062.868-.124l.124 1.862c-.558.124-1.179.124-1.8.186-2.544 0-3.165-1.117-3.165-3.103v-3.352h-1.614l-.062-1.986Zm8.007 9.434c.372.124.745.186 1.117.186.683 0 1.304-.434 1.428-1.117l-3.352-8.441h3.041l1.8 5.4 1.676-5.4h2.855l-2.979 7.634c-.807 2.048-1.428 4.096-4.034 4.096-.621 0-1.18-.061-1.8-.186l.248-2.172Zm13.345-8.255v-.062c0-.559-.373-.745-.994-.745h-.93v2.42h.496v-.992h.248l.559.993h.558l-.62-1.055c.372.062.62-.187.683-.559Zm-.994.248h-.434v-.62h.372c.187 0 .497 0 .497.248s-.186.372-.435.372Z"/><path fill="#fff" d="M96.326 53.726c-1.49 0-2.668 1.055-2.668 2.544a2.65 2.65 0 0 0 2.668 2.67c1.49 0 2.731-1.18 2.731-2.67-.062-1.49-1.241-2.544-2.73-2.544Zm0 4.779c-1.179 0-2.172-.993-2.172-2.172 0-1.18.993-2.049 2.172-2.049 1.18 0 2.173.87 2.173 2.049 0 1.179-.993 2.172-2.173 2.172ZM42.7 31.381h-2.793l1.428-4.344 1.365 4.345Zm-7.324 4.47h2.98l.868-2.36h4.159l.869 2.36h3.165l-4.282-11.049h-3.6L35.376 35.85Z"/></svg>
